X: 38721
T: Streamstown, The
R: jig
M: 6/8
K: Dmajor
|:g|fef d2 B|AFA d2 e|faf ede|gfg a2 g|
fef d2 B|AFA ded|faf ede|gfe d2:|
|:f|aba fdf|a2 a baf|gag ece|geg bag|
aba fdf|aga bge|fef ede|gfe d2:|

